X:1
T:Jim Blake's Message
M:3/4
L:1/4
K:E
 B| B2 B| B2 G| F E2-| E2 E| C E E| E2 D| E3| z2 B| B B B| B G G| G E2|\
 z2 G/2G/2| F2 F| G A ^A| B3| z2 B| B/2 B3/2 B| B2 G| F E2-| E2 E|\
 E2 F| E E D| E3-| E2 E/2E/2| E E E| E EG/2-B/2| B B2-| B2 z| F F F|\
 G G F| E3-| E2||
